usr/share/icons/biglinux-icons-material/scalable/apps/netbeans.svg

<svg width="64" height="64" version="1" xmlns="http://www.w3.org/2000/svg"><path d="M32.155 3.002c-.095-.003-.19.009-.285.01l.062 13.879L32 32l13.068-7.497 12.066-6.919c-.57-1.019-1.387-1.897-2.432-2.5L35.298 3.88a6.597 6.597 0 0 0-3.143-.878z" fill="#add439"/><path d="M6.982 17.349A6.585 6.585 0 0 0 6 20.796v22.408c0 1.241.359 2.424.99 3.444L19 39.613 32 32l-13-7.613z" fill="#ac1248"/><path d="M57.01 17.352 45 24.387 32 32l25.024 14.654a6.595 6.595 0 0 0 .976-3.45V20.796a6.595 6.595 0 0 0-.053-.784c-.01-.084-.024-.166-.037-.25a6.595 6.595 0 0 0-.099-.495 6.543 6.543 0 0 0-.087-.334 6.595 6.595 0 0 0-.124-.366c-.046-.127-.088-.255-.142-.379a6.595 6.595 0 0 0-.022-.051l-.003.003a6.704 6.704 0 0 0-.423-.787z" fill="#3471b9"/><path d="M32.13 3.002a6.59 6.59 0 0 0-3.428.877L9.298 15.083a6.582 6.582 0 0 0-2.451 2.49l12.086 6.93L32 32l.067-15.11z" fill="#86b02f"/><path d="m32 32-.068 15.11-.062 13.889a6.595 6.595 0 0 0 3.428-.88l19.404-11.205a6.595 6.595 0 0 0 2.449-2.486l-12.083-6.93z" fill="#2e90e8"/><path d="m32 32-13.068 7.497-12.066 6.919c.231.408.491.8.804 1.153a6.595 6.595 0 0 0 .124.144c.108.115.222.224.339.331a6.595 6.595 0 0 0 .225.199c.108.09.214.18.328.263a6.595 6.595 0 0 0 .612.408l19.404 11.204a6.595 6.595 0 0 0 3.428.872l-.063-13.88z" fill="#eb2f6a"/><path d="m32 13.515 16 9.24V41.16L32 50.4l-16-9.24V22.755z" fill="#fff"/><path d="m32 13.515 16 9.24V41.16L32 50.4z" fill="#cedbe6"/><path d="m32 13.515-16 9.24 16 9.24 16-9.24z" fill="#dee5c0"/></svg>

<?xml version="1.0" encoding="UTF-8" standalone="no"?>
<svg
   width="24"
   height="24"
   viewBox="0 0 6.349875 6.349875"
   version="1.1"
   id="svg190"
   sodipodi:docname="netbeans.svg"
   xml:space="preserve"
   inkscape:version="1.2.2 (b0a8486541, 2022-12-01)"
   inkscape:export-filename="qt-creator.pdf"
   inkscape:export-xdpi="96"
   inkscape:export-ydpi="96"
   xmlns:inkscape="http://www.inkscape.org/namespaces/inkscape"
   xmlns:sodipodi="http://sodipodi.sourceforge.net/DTD/sodipodi-0.dtd"
   xmlns="http://www.w3.org/2000/svg"
   xmlns:svg="http://www.w3.org/2000/svg"><defs
     id="defs194"><rect
       x="5.3268056"
       y="2.0367198"
       width="12.69033"
       height="15.980416"
       id="rect6368" /><linearGradient
       id="paint0_linear_3_286"
       x1="12"
       y1="1"
       x2="12"
       y2="12"
       gradientUnits="userSpaceOnUse"><stop
         stop-color="#EEA5FF"
         id="stop266" /><stop
         offset="1"
         stop-color="#A159B2"
         id="stop268" /></linearGradient><linearGradient
       x1="12"
       y1="1"
       x2="12"
       y2="23"
       gradientUnits="userSpaceOnUse"
       gradientTransform="matrix(0.75,0,0,0.75,-7.98374e-6,-2.49454e-5)"
       spreadMethod="pad"
       id="linearGradient38255-1"><stop
         style="stop-opacity:1;stop-color:#4a74d2"
         offset="0"
         id="stop38251-9" /><stop
         style="stop-opacity:1;stop-color:#375295"
         offset="1"
         id="stop38253-4" /></linearGradient><linearGradient
       id="paint0_linear_18_187"
       x1="12"
       y1="1"
       x2="12"
       y2="23"
       gradientUnits="userSpaceOnUse"
       gradientTransform="matrix(0.26457812,0,0,0.26457812,-2.8164292e-6,9.3778578e-6)"><stop
         stop-color="#33BEF0"
         id="stop43245"
         offset="0"
         style="stop-color:#ff5f5f;stop-opacity:1;" /><stop
         offset="1"
         stop-color="#0A85D9"
         id="stop43247"
         style="stop-color:#e82e34;stop-opacity:1;" /></linearGradient><linearGradient
       x1="12"
       y1="1"
       x2="12"
       y2="23"
       gradientUnits="userSpaceOnUse"
       gradientTransform="matrix(0.75,0,0,0.75,-7.98374e-6,2.65834e-5)"
       spreadMethod="pad"
       id="linearGradient44915"><stop
         style="stop-color:#31d931;stop-opacity:1;"
         offset="0"
         id="stop44911" /><stop
         style="stop-color:#d4f3d4;stop-opacity:1;"
         offset="1"
         id="stop44913" /></linearGradient><linearGradient
       id="paint0_linear_3_286-3"
       x1="12"
       y1="1"
       x2="12"
       y2="12"
       gradientUnits="userSpaceOnUse"><stop
         stop-color="#EEA5FF"
         id="stop266-6" /><stop
         offset="1"
         stop-color="#A159B2"
         id="stop268-7" /></linearGradient><radialGradient
       id="paint0_radial_4_408"
       cx="0"
       cy="0"
       r="1"
       gradientUnits="userSpaceOnUse"
       gradientTransform="matrix(0,5.8207186,-5.8207186,0,3.1749362,0.26458225)"><stop
         stop-color="#D6B1FF"
         id="stop3331"
         offset="0"
         style="stop-color:#cdf2cd;stop-opacity:1;" /><stop
         offset="1"
         stop-color="#A75DFA"
         id="stop3333"
         style="stop-color:#38d23a;stop-opacity:1;" /></radialGradient><radialGradient
       fx="0"
       fy="0"
       cx="0"
       cy="0"
       r="1"
       gradientUnits="userSpaceOnUse"
       gradientTransform="matrix(0,16.5,-16.5,0,8.999996,0.750012)"
       spreadMethod="pad"
       id="radialGradient3666"><stop
         style="stop-opacity:1;stop-color:#cdf2cd"
         offset="0"
         id="stop3662" /><stop
         style="stop-opacity:1;stop-color:#38d23a"
         offset="1"
         id="stop3664" /></radialGradient><radialGradient
       fx="0"
       fy="0"
       cx="0"
       cy="0"
       r="1"
       gradientUnits="userSpaceOnUse"
       gradientTransform="matrix(0,16.5,-16.5,0,8.999996,0.750012)"
       spreadMethod="pad"
       id="radialGradient3666-6"><stop
         style="stop-color:#ffffff;stop-opacity:1;"
         offset="0"
         id="stop3662-7" /><stop
         style="stop-color:#add439;stop-opacity:1;"
         offset="0.33294117"
         id="stop11862" /><stop
         style="stop-color:#eb2f6a;stop-opacity:1;"
         offset="0.61117649"
         id="stop12623" /><stop
         style="stop-color:#3471b9;stop-opacity:1;"
         offset="1"
         id="stop3664-5" /></radialGradient><rect
       x="5.3268056"
       y="2.0367198"
       width="12.69033"
       height="15.980416"
       id="rect6368-6" /><radialGradient
       id="paint0_radial_4_408-2"
       cx="0"
       cy="0"
       r="1"
       gradientUnits="userSpaceOnUse"
       gradientTransform="matrix(0,5.8207186,-5.8207186,0,3.1749362,0.26458225)"><stop
         stop-color="#D6B1FF"
         id="stop3331-7"
         offset="0"
         style="stop-color:#cdf2cd;stop-opacity:1;" /><stop
         offset="1"
         stop-color="#A75DFA"
         id="stop3333-0"
         style="stop-color:#38d23a;stop-opacity:1;" /></radialGradient><radialGradient
       fx="0"
       fy="0"
       cx="0"
       cy="0"
       r="1"
       gradientUnits="userSpaceOnUse"
       gradientTransform="matrix(0,16.5,-16.5,0,8.999996,0.750012)"
       spreadMethod="pad"
       id="radialGradient3666-9"><stop
         style="stop-opacity:1;stop-color:#cdf2cd"
         offset="0"
         id="stop3662-3" /><stop
         style="stop-opacity:1;stop-color:#38d23a"
         offset="1"
         id="stop3664-6" /></radialGradient><radialGradient
       fx="0"
       fy="0"
       cx="0"
       cy="0"
       r="1"
       gradientUnits="userSpaceOnUse"
       gradientTransform="matrix(0,16.5,-16.5,0,8.999996,0.750012)"
       spreadMethod="pad"
       id="radialGradient3666-6-0"><stop
         style="stop-opacity:1;stop-color:#cdf2cd"
         offset="0"
         id="stop3662-7-6" /><stop
         style="stop-opacity:1;stop-color:#38d23a"
         offset="1"
         id="stop3664-5-2" /></radialGradient></defs><sodipodi:namedview
     id="namedview192"
     pagecolor="#ffffff"
     bordercolor="#000000"
     borderopacity="0.25"
     inkscape:showpageshadow="2"
     inkscape:pageopacity="0.0"
     inkscape:pagecheckerboard="0"
     inkscape:deskcolor="#d1d1d1"
     showgrid="false"
     inkscape:zoom="9.02666"
     inkscape:cx="2.4372248"
     inkscape:cy="18.500752"
     inkscape:window-width="1366"
     inkscape:window-height="686"
     inkscape:window-x="0"
     inkscape:window-y="0"
     inkscape:window-maximized="1"
     inkscape:current-layer="svg190" /><g
     id="g3652"
     transform="matrix(0.35277082,0,0,0.35277082,0.02186344,-0.08061378)"><g
       id="g3654"><g
         id="g3660"><path
           d="m 7.195,0.836 c 0.09,0 0.176,-0.012 0.258,-0.035 1.078,-0.071 2.156,-0.067 3.231,0.008 0.976,0.078 1.921,0.289 2.836,0.636 1.519,0.625 2.558,1.711 3.121,3.254 0.316,0.93 0.507,1.887 0.566,2.867 0.078,1.235 0.051,2.465 -0.086,3.696 -0.105,0.863 -0.328,1.691 -0.672,2.488 -0.637,1.383 -1.672,2.336 -3.101,2.859 C 12.191,17 11,17.207 9.773,17.227 8.398,17.301 7.035,17.195 5.684,16.918 3.203,16.367 1.668,14.852 1.09,12.375 0.844,11.262 0.73,10.133 0.754,8.992 0.727,7.781 0.855,6.582 1.141,5.402 1.75,3.09 3.219,1.656 5.547,1.102 6.09,0.969 6.641,0.879 7.195,0.836 Z"
           style="fill:url(#radialGradient3666-6);fill-rule:evenodd;stroke:none;stroke-width:0.99975004;stroke-dasharray:none"
           id="path3668" /></g></g></g><g
     id="g11290"
     transform="matrix(0.07632061,0,0,0.06842553,0.75466104,0.90468632)"><path
       d="M 32.155,3.002 C 32.06,2.999 31.965,3.011 31.87,3.012 L 31.932,16.891 32,32 45.068,24.503 57.134,17.584 c -0.57,-1.019 -1.387,-1.897 -2.432,-2.5 L 35.298,3.88 A 6.597,6.597 0 0 0 32.155,3.002 Z"
       fill="#add439"
       id="path11257" /><path
       d="M 6.982,17.349 A 6.585,6.585 0 0 0 6,20.796 v 22.408 c 0,1.241 0.359,2.424 0.99,3.444 L 19,39.613 32,32 19,24.387 Z"
       fill="#ac1248"
       id="path11259" /><path
       d="M 57.01,17.352 45,24.387 32,32 57.024,46.654 A 6.595,6.595 0 0 0 58,43.204 V 20.796 a 6.595,6.595 0 0 0 -0.053,-0.784 c -0.01,-0.084 -0.024,-0.166 -0.037,-0.25 A 6.595,6.595 0 0 0 57.811,19.267 6.543,6.543 0 0 0 57.724,18.933 6.595,6.595 0 0 0 57.6,18.567 C 57.554,18.44 57.512,18.312 57.458,18.188 A 6.595,6.595 0 0 0 57.436,18.137 L 57.433,18.14 A 6.704,6.704 0 0 0 57.01,17.353 Z"
       fill="#3471b9"
       id="path11261" /><path
       d="M 32.13,3.002 A 6.59,6.59 0 0 0 28.702,3.879 L 9.298,15.083 a 6.582,6.582 0 0 0 -2.451,2.49 L 18.933,24.503 32,32 32.067,16.89 Z"
       fill="#86b02f"
       id="path11263" /><path
       d="M 32,32 31.932,47.11 31.87,60.999 a 6.595,6.595 0 0 0 3.428,-0.88 L 54.702,48.914 a 6.595,6.595 0 0 0 2.449,-2.486 l -12.083,-6.93 z"
       fill="#2e90e8"
       id="path11265" /><path
       d="M 32,32 18.932,39.497 6.866,46.416 c 0.231,0.408 0.491,0.8 0.804,1.153 a 6.595,6.595 0 0 0 0.124,0.144 c 0.108,0.115 0.222,0.224 0.339,0.331 a 6.595,6.595 0 0 0 0.225,0.199 c 0.108,0.09 0.214,0.18 0.328,0.263 a 6.595,6.595 0 0 0 0.612,0.408 L 28.702,60.118 A 6.595,6.595 0 0 0 32.13,60.99 L 32.067,47.11 Z"
       fill="#eb2f6a"
       id="path11267" /><path
       d="m 32,13.515 16,9.24 V 41.16 L 32,50.4 16,41.16 V 22.755 Z"
       fill="#ffffff"
       id="path11269" /><path
       d="m 32,13.515 16,9.24 V 41.16 L 32,50.4 Z"
       fill="#cedbe6"
       id="path11271" /><path
       d="m 32,13.515 -16,9.24 16,9.24 16,-9.24 z"
       fill="#dee5c0"
       id="path11273" /></g></svg>
